X:41
T:Punch in The Dark
C:Gerry O'Connor (banjo)
R:reel
S:Session at Shoot The Crows, Sligo, 1992
D:Sean Smyth: The Blue Fiddle
D:Four Men and a Dog: Dr A's Secret Remedies
Z:id:hn-reel-402
M:C|
K:Bdor
~B3d cBdc|BdcB ~F3A|~B3d cBdc|Aa~a2 afec|
~B3d cBdc|BdcB ~F3D|1 ~E3F AGAB|cAce afec:|2 EAAG ABcA|Bcde fefg||
K:A
|:~a3g aece|~a3f gabg|~a3g aece|dcBA GBde|
~a3g aece|~a3f gaba|c'abg agfe|1 dcBA GBde:|2 dcBA Bcdc||
